packages/tokens/icons/scalableBusinessModel/size24Px.svg

<svg viewBox="0 0 26 26" fill="none" xmlns="http://www.w3.org/2000/svg" width="1em" height="1em"><path d="M13.5 10.5V8.5L15.5 8.5L11.2399 3.81393C10.8432 3.3775 10.1568 3.3775 9.76004 3.81394L5.50002 8.5H7.50002L7.5 21.5C7.5 22.0523 7.94772 22.5 8.5 22.5H12.3571C12.9094 22.5 13.3571 22.0523 13.3571 21.5V21.5" stroke="currentColor" stroke-linecap="round" stroke-linejoin="round"/><path d="M13.8257 19.1738L20.1111 12.8884" stroke="currentColor" stroke-linecap="round"/><circle cx="14.7778" cy="13.7778" r="1.27778" stroke="currentColor"/><circle cx="19.2222" cy="18.2221" r="1.27778" stroke="currentColor"/></svg>

<svg xmlns="http://www.w3.org/2000/svg" fill="none" viewBox="0 0 26 26" width="1em" height="1em"><path stroke="currentColor" stroke-linecap="round" stroke-linejoin="round" d="M13.5 10.5v-2h2l-4.26-4.686a1 1 0 0 0-1.48 0L5.5 8.5h2v13a1 1 0 0 0 1 1h3.857a1 1 0 0 0 1-1v0"/><path stroke="currentColor" stroke-linecap="round" d="m13.826 19.174 6.285-6.286"/><circle cx="14.778" cy="13.778" r="1.278" stroke="currentColor"/><circle cx="19.222" cy="18.222" r="1.278" stroke="currentColor"/></svg>
